assets/images/veado.svg

<svg width="53" height="47" viewBox="0 0 53 47" fill="none" xmlns="http://www.w3.org/2000/svg">
<g clip-path="url(#clip0_19_499)">
<path d="M19.8299 34.6543C19.9379 35.1916 19.7446 35.7463 19.9006 36.2809C20.1179 37.1943 20.1539 38.1343 20.2766 39.0596C20.3126 39.8276 20.5046 40.5809 20.5366 41.3503C20.6966 42.8983 20.5765 44.4556 20.6379 46.0063C20.6952 45.8783 20.7219 45.7383 20.7126 45.6009C20.6846 45.1116 20.8032 44.6369 20.8699 44.1569C21.0099 43.3703 20.9779 42.5649 21.1273 41.7796C21.2126 41.2049 21.2806 40.6276 21.2819 40.0436C21.4366 39.2103 21.3832 38.3543 21.3539 37.5116C21.2819 36.3729 21.2779 35.2276 21.2846 34.0903C20.8739 34.4409 20.3486 34.5716 19.8299 34.6543V34.6543ZM35.5966 33.8089C34.9539 34.1609 34.4726 34.7289 33.9499 35.2249C33.8153 36.4956 34.5153 37.6196 34.6246 38.8583C34.7139 40.2049 34.5419 41.5489 34.5152 42.8929C34.5059 43.9343 34.2619 44.9516 34.2219 45.9929C34.6153 45.5196 34.6272 44.8943 34.8126 44.3396C35.1152 43.0463 35.1873 41.7183 35.3499 40.4036C35.3459 39.8796 35.5086 39.3729 35.4846 38.8489C35.4832 38.0583 35.5006 37.2649 35.4619 36.4783C35.3192 35.8356 35.3979 35.1796 35.3633 34.5369L35.4139 34.5196C35.4579 35.0316 35.3979 35.5529 35.4606 36.0689C35.6179 35.3236 35.3806 34.5449 35.5966 33.8089V33.8089ZM40.6339 25.2036C40.9072 26.2983 40.9632 27.4356 40.8846 28.5583C41.4779 28.5889 41.7273 28.0103 41.9806 27.5823C42.0846 27.1223 42.1499 26.6436 42.0699 26.1769C41.9339 25.8289 41.7432 25.4756 41.4352 25.2556C41.1699 25.1983 40.8966 25.2209 40.6339 25.2036ZM14.5859 13.9596C13.7832 14.4383 12.8659 14.6743 11.9592 14.8636C11.4752 14.9649 11.0326 15.1929 10.5659 15.3489C10.6939 15.4729 10.8419 15.6223 10.7753 15.8289C10.7473 16.0583 10.3659 16.0583 10.3646 16.2929C10.5419 16.5116 10.7552 16.7276 11.0379 16.8089C11.3926 16.8956 11.7086 17.1169 12.0819 17.1369C12.5166 17.1729 12.9406 17.2969 13.3272 17.5023C13.9232 17.7996 14.5886 18.0863 14.9512 18.6796C15.9912 20.5876 16.6246 22.6823 17.2059 24.7676C17.2659 25.1836 17.4286 25.5729 17.5633 25.9743C17.7326 26.6943 18.0406 27.3729 18.2753 28.0729C18.6553 28.9009 18.8392 29.8129 19.3179 30.5943C19.5392 30.9449 19.7179 31.3489 20.0566 31.6089C21.0232 32.4783 22.2686 32.9169 23.3926 33.5396C23.7219 33.7703 24.1366 33.6703 24.4939 33.7903C24.6579 34.0903 24.7859 34.4089 24.9086 34.7316C24.8486 34.7356 24.7312 34.7489 24.6726 34.7529C25.4752 35.7329 25.5619 37.0409 25.7939 38.2329C26.3526 40.8449 26.6592 43.5183 26.5459 46.1916C26.6872 45.5929 26.8232 44.9863 26.9339 44.3796C26.9512 44.1303 26.9819 43.8876 27.0246 43.6489C27.0766 42.4663 27.1392 41.2769 26.9846 40.0996C26.9486 39.4743 26.9739 38.8503 26.8926 38.2303C26.8992 37.2276 26.8446 36.2223 26.9086 35.2223C26.9313 34.8863 26.8166 34.5609 26.7512 34.2369C26.8072 34.2396 26.9192 34.2463 26.9739 34.2489C27.0139 33.8636 26.9592 33.3849 27.2646 33.0983C27.4832 32.8756 27.7832 33.0556 28.0392 33.0769C29.3126 32.9289 30.6019 33.0729 31.8766 32.9543C32.4219 32.8329 32.9899 32.7476 33.4952 32.4916C34.1166 32.2943 34.7593 32.1169 35.3166 31.7649C35.6073 31.5689 35.9313 31.4343 36.2446 31.2823C36.3433 30.6783 36.3259 29.9796 36.7685 29.5023C37.0619 29.3196 37.0632 29.7556 37.0592 29.9409C37.0139 30.6289 36.9512 31.3209 37.0126 32.0129C37.1032 32.7143 37.0552 33.4356 37.2739 34.1183C37.4872 35.1916 37.9432 36.2023 38.0926 37.2903C38.2059 37.8396 38.3526 38.3889 38.3286 38.9556C38.3046 39.8596 38.3952 40.7729 38.2286 41.6689C38.1992 42.7809 37.8752 43.8556 37.7486 44.9543C37.7486 45.4423 37.6792 45.9276 37.6006 46.4089C37.7819 46.3983 37.9633 46.3889 38.1499 46.3836C38.1873 46.0143 38.2579 45.6543 38.3446 45.2996C38.3526 44.7223 38.5459 44.1743 38.6499 43.6169C38.7819 42.5876 38.8433 41.5543 39.0659 40.5383C39.1139 39.9303 39.3072 39.3409 39.3539 38.7329C39.4259 37.9969 39.7553 37.2956 39.6939 36.5449C39.6379 36.3329 39.5926 36.1263 39.5032 35.9316C39.0886 34.9129 38.7299 33.8463 38.7139 32.7383C38.7073 32.1609 38.9512 31.6343 39.0712 31.0796C39.1912 30.6783 39.3952 30.3089 39.5232 29.9089C39.7832 29.1903 39.7019 28.4089 39.7113 27.6583C39.6313 26.8983 39.6819 26.1036 39.3526 25.3943C38.9806 24.7303 38.4979 24.1089 37.8619 23.6796C37.4192 23.4103 36.8885 23.3716 36.4045 23.2209C35.7179 22.9969 34.9873 23.0329 34.2779 23.0329C33.5339 23.0369 32.8366 23.3116 32.1539 23.5716C31.7046 23.7743 31.2113 23.8343 30.7579 24.0236C30.0619 24.2729 29.3925 24.5969 28.6712 24.7649C27.7299 25.0316 26.7499 25.1436 25.7766 25.1129C24.9126 25.0849 23.9926 25.2223 23.2113 24.7756C22.7686 24.6316 22.6873 24.0916 22.2779 23.9063C21.0059 23.1623 20.2939 21.8209 19.5619 20.5996C19.1166 19.6089 18.5379 18.6076 18.5619 17.4863C18.4819 16.9476 18.5352 16.3689 18.2539 15.8823C18.0552 15.4516 17.8272 14.8796 17.2619 14.8889C17.0699 14.7009 17.1419 14.4836 17.2486 14.2769C17.0526 14.4049 16.9632 14.6463 16.7619 14.7716C16.4099 14.5996 16.5032 14.2116 16.6032 13.9183C15.9379 13.8796 15.2046 13.5796 14.5859 13.9596V13.9596ZM18.3019 11.6863C17.9725 12.1996 17.8139 12.7943 17.6166 13.3676C17.7633 13.4796 17.8832 13.6409 18.0539 13.7343C18.6086 13.1609 19.0019 12.2796 18.6899 11.4929C18.5499 11.5289 18.3765 11.5409 18.3019 11.6863ZM15.1232 11.0529C15.0152 11.6356 15.2006 12.2129 15.2352 12.7969C15.3592 12.8023 15.4819 12.8143 15.6126 12.8289C15.5419 12.2209 15.5686 11.5316 15.1232 11.0529ZM14.2606 10.3436C14.6526 10.0623 15.1739 9.88626 15.6433 10.0849C16.2486 10.3543 16.5979 11.0396 16.6032 11.6823C16.6099 12.1476 16.4113 12.5783 16.1633 12.9609C16.3873 12.9556 16.6126 12.9716 16.8392 12.9996C17.0432 12.3956 17.2192 11.7716 17.5392 11.2196C17.8992 10.6649 18.6499 10.6609 19.2366 10.7263C19.6819 10.8676 19.8206 11.3716 19.9246 11.7769C20.1179 12.5063 19.8072 13.2383 19.4512 13.8649C19.2766 14.1636 19.0033 14.3849 18.7806 14.6436C18.7099 14.8623 18.9166 15.0556 18.9846 15.2609C19.1526 15.7476 19.3432 16.2396 19.3646 16.7649C19.4392 17.4863 19.6113 18.1996 19.8299 18.8916C20.3339 19.8169 20.8699 20.7236 21.4566 21.5983C21.9406 22.3743 22.6673 22.9809 23.4913 23.3743C23.9859 23.6996 24.5939 23.5649 25.1526 23.5889C26.4713 23.6063 27.8379 23.6129 29.0779 23.0983C30.2019 22.7436 31.3126 22.3569 32.4246 21.9703C33.7686 21.4383 35.2739 21.4996 36.6633 21.8263C37.6366 22.0116 38.6299 22.3823 39.3032 23.1449C39.7486 23.5116 40.0526 24.0063 40.3392 24.4996C40.8166 23.9023 41.8832 23.6103 42.4232 24.2823C43.3046 25.1449 43.5046 26.5129 43.1246 27.6556C42.8606 28.2183 42.5806 28.8823 41.9526 29.1143C41.6113 29.2956 41.2166 29.2076 40.8539 29.1543C41.0712 29.4116 40.9179 29.7276 40.7766 29.9876C40.5272 30.4223 40.4419 30.9263 40.1739 31.3529C39.6525 32.2596 39.7552 33.3729 40.0459 34.3356C40.2286 35.1023 40.6446 35.7929 40.7859 36.5729C40.8353 37.1756 40.6152 37.7516 40.4726 38.3276C40.3832 39.4196 40.0793 40.4743 39.9579 41.5623C39.7419 42.6183 39.5593 43.6823 39.3166 44.7383C39.2459 45.3423 39.1219 45.9396 39.0139 46.5383C38.9086 46.9076 38.6393 47.3209 38.2166 47.3289C37.8113 47.3396 37.4006 47.3089 37.0139 47.2036C36.6379 47.0423 36.3566 46.6383 36.4246 46.2223C36.5059 45.2156 36.7766 44.2356 36.8939 43.2343C37.2193 41.7956 37.1539 40.3129 37.1672 38.8489C37.1859 37.9609 36.9832 37.0916 36.7846 36.2343C36.6339 35.8836 36.6579 35.4903 36.4966 35.1489C36.5033 35.8729 36.6179 36.6023 36.5473 37.3329C36.5766 38.0343 36.5912 38.7503 36.4432 39.4449C36.3259 40.0383 36.3313 40.6503 36.2219 41.2476C36.0739 42.0423 35.9659 42.8463 35.7392 43.6249C35.4486 44.5569 35.3192 45.5596 34.7539 46.3849C34.4472 46.7863 33.7712 47.0036 33.3712 46.6183C32.9352 46.1383 33.0886 45.4409 33.1792 44.8636C33.1886 44.2396 33.3393 43.6316 33.3139 43.0089C33.3513 43.2343 33.3445 43.4716 33.4045 43.7036C33.4885 43.2969 33.3366 42.8863 33.4366 42.4836C33.6792 41.3596 33.6099 40.2009 33.6219 39.0596C33.6259 38.6329 33.5832 38.2063 33.4685 37.7969C33.2619 37.4183 33.2126 36.9836 33.1179 36.5716C32.9206 35.8089 33.0059 35.0143 33.0606 34.2449C32.4966 34.2316 31.9419 34.3583 31.3779 34.3329C30.5779 34.2996 29.7832 34.4596 28.9872 34.3969C28.6872 34.3689 28.3886 34.3863 28.0979 34.4369C27.9339 35.9396 28.1432 37.4516 28.0846 38.9596C28.0166 40.1356 28.1646 41.3103 28.0966 42.4903C28.0699 43.5276 27.9552 44.5689 27.6952 45.5769C27.5659 46.0716 27.5539 46.6969 27.0966 47.0249C26.7286 47.2263 26.3139 47.0196 25.9833 46.8396C25.5859 46.1889 25.6486 45.3876 25.6539 44.6583C25.6992 43.5383 25.5512 42.4289 25.4766 41.3169C25.3206 40.2449 25.1326 39.1756 24.9553 38.1076C24.8579 37.7289 24.7793 37.3463 24.7553 36.9609C24.5446 36.2036 24.3846 35.3836 23.8619 34.7703C23.4232 34.7156 22.9912 34.6036 22.5486 34.5783C22.4059 34.6143 22.4526 34.8009 22.4312 34.9089C22.3539 36.8089 22.4259 38.7089 22.2952 40.6063C22.2459 41.1583 22.3432 41.7463 22.1006 42.2689C21.7566 42.9876 21.9339 43.8089 21.7246 44.5623C21.6206 44.9676 21.7046 45.4383 21.4152 45.7783C21.1699 46.0903 21.2192 46.5556 20.9045 46.8263C20.5965 47.1436 20.0873 47.0983 19.7633 46.8369C19.6473 46.5329 19.5619 46.2103 19.5553 45.8863C19.4926 45.1036 19.4939 44.3103 19.6059 43.5316C19.6006 42.4183 19.6846 41.2956 19.5219 40.1916C19.4846 39.9076 19.4713 39.6223 19.4553 39.3449C19.3726 38.8663 19.3793 38.3809 19.3526 37.8983C19.1953 36.6289 19.0619 35.3489 18.8152 34.0943C18.7646 33.0289 18.2979 32.0503 17.8606 31.0996C17.5953 30.2156 17.3192 29.3303 16.9566 28.4809C16.7326 27.4209 16.2446 26.4396 16.0246 25.3769C15.9246 24.8009 15.6726 24.2649 15.5646 23.6903C15.3432 22.6889 14.8072 21.7996 14.5632 20.8049C14.4726 20.3369 14.1633 19.9569 13.9766 19.5276C13.7033 18.9543 13.0699 18.7383 12.5473 18.4689C12.1486 18.2436 11.6779 18.3076 11.2473 18.3609C10.9993 18.2329 10.8179 17.9969 10.5619 17.8836C10.3832 17.8516 10.2099 17.8156 10.0366 17.7809C9.38458 17.1569 8.92592 16.2676 9.00992 15.3436C9.31259 15.0063 9.67125 14.7063 10.1073 14.5596C10.6833 14.3623 11.2139 14.0463 11.8126 13.9116C12.7153 13.7103 13.5806 13.3676 14.3926 12.9249C14.3179 12.0663 14.1192 11.2049 14.2606 10.3436" fill="#0A0A0B"/>
<path d="M14.6966 14.7343C15.0553 14.573 15.446 14.7223 15.8153 14.7623C16.2193 14.7783 16.4966 15.285 16.2673 15.6316C15.974 15.981 15.3966 16.085 15.022 15.813C14.8153 15.769 14.5966 15.7277 14.47 15.5477C14.1913 15.3023 14.362 14.8236 14.6966 14.7343Z" fill="#0A0A0B"/>
<path d="M17.9459 22.4116C18.3525 22.3143 18.4286 23.1089 18.0059 23.0849C17.6046 23.1236 17.5912 22.4863 17.9459 22.4116Z" fill="#0A0A0B"/>
<path d="M18.5313 23.9502C18.9126 23.7396 18.998 24.4662 18.6206 24.4662C18.3593 24.4356 18.3006 24.0516 18.5313 23.9502Z" fill="#0A0A0B"/>
<path d="M19.1566 25.2929C19.2819 25.2249 19.4113 25.2223 19.5486 25.2823C19.8526 25.6503 19.6139 26.4396 19.0459 26.2756C18.5939 26.0956 18.7686 25.4449 19.1566 25.2929" fill="#0A0A0B"/>
<path d="M20.0152 27.9423C19.7339 27.3956 20.0645 26.7343 20.5899 26.4876C20.8352 26.4423 21.1179 26.6769 20.9992 26.9396C20.8272 27.3756 20.5499 27.9129 20.0152 27.9423Z" fill="#0A0A0B"/>
<path d="M20.9979 29.4196C20.6579 28.9209 20.9459 28.0102 21.6139 28.0236C22.0033 28.0316 22.0672 28.4969 21.9512 28.7889C21.7819 29.1516 21.4352 29.5142 20.9979 29.4196Z" fill="#0A0A0B"/>
<path d="M34.4713 29.2156C34.0446 29.2276 33.7966 28.5649 34.2753 28.4383C34.7326 28.4236 34.6273 28.9489 34.4713 29.2156Z" fill="#0A0A0B"/>
<path d="M30.6633 28.8236C30.8433 28.7409 31.0059 28.9289 31.1259 29.0463C31.3779 29.3543 31.4713 29.7569 31.5606 30.1409C31.6273 30.4116 31.5619 30.7289 31.3486 30.9223C31.2086 31.0476 30.9926 30.9689 30.8819 30.8476C30.6552 30.4769 30.7579 30.0129 30.5646 29.6303C30.4472 29.3636 30.3073 28.9636 30.6633 28.8236Z" fill="#0A0A0B"/>
<path d="M32.4553 28.8303C32.634 28.6623 32.9632 28.7449 33.0712 28.9596C33.2646 29.2756 33.5153 29.6516 33.3513 30.0303C33.0886 30.3316 32.6886 29.9996 32.5793 29.7223C32.4726 29.4516 32.222 29.0969 32.4553 28.8303Z" fill="#0A0A0B"/>
<path d="M28.6819 29.5156C28.8473 29.4209 29.1113 29.4489 29.1953 29.6449C29.4126 30.0876 29.582 30.5876 29.5033 31.0903C29.4593 31.3223 29.258 31.4796 29.0833 31.6223C28.7326 31.4223 28.734 30.9343 28.7033 30.5703C28.674 30.2236 28.3873 29.8076 28.6819 29.5156" fill="#0A0A0B"/>
<path d="M21.9633 30.0663C22.2753 30.0796 22.4405 30.4796 22.3379 30.7503C21.9805 30.821 21.6833 30.301 21.9633 30.0663Z" fill="#0A0A0B"/>
</g>
<defs>
<clipPath id="clip0_19_499">
<rect width="53" height="47" fill="white"/>
</clipPath>
</defs>
</svg>

<svg width="53" height="47" fill="none" xmlns="http://www.w3.org/2000/svg"><g clip-path="url(#a)"><path d="M14.5 13 10 15c0 1 1.5 2.5 3.5 2.5 1.6 0 2.333 3 2.5 4.5.5 3.167 1.8 9.8 3 11 1.5 1.5.5 13.5 1.5 13.5.8 0 1.333-9 1.5-13.5.333 0 1.3.2 2.5 1s1.833 8 2 11.5h1V33H34v12.5l1-.5 1-10.5 1-1.5 1 5.5-1 8h2L40.5 36 39 33c-.333-1.833-.5-5.3 1.5-4.5 2 .8 1.833-2.667 1.5-4.5-.667.5-2.4.9-4-1.5-2-3-9 1.5-14 1.5-4 0-5.333-6.667-5.5-10 0 0 1.845-2.687.5-3-1.218-.283-2 2-2 2h-1v-2.5h-1.5V13Z" fill="#fff"/><path d="M19.83 34.654c.108.538-.085 1.092.07 1.627.218.913.254 1.853.377 2.779.036.768.228 1.52.26 2.29.16 1.548.04 3.106.1 4.656a.855.855 0 0 0 .076-.405c-.028-.49.09-.964.157-1.444.14-.787.108-1.592.257-2.377a12 12 0 0 0 .155-1.736c.155-.834.101-1.69.072-2.532-.072-1.14-.076-2.284-.07-3.422-.41.35-.935.482-1.454.564Zm15.767-.845c-.643.352-1.124.92-1.647 1.416-.135 1.27.565 2.395.675 3.633.089 1.347-.083 2.69-.11 4.035-.01 1.041-.253 2.059-.293 3.1.393-.473.405-1.099.59-1.653.303-1.294.375-2.622.538-3.936-.004-.524.159-1.031.135-1.555-.002-.79.016-1.584-.023-2.37-.143-.643-.064-1.3-.099-1.942l.05-.017c.045.512-.015 1.033.048 1.549.157-.745-.08-1.524.136-2.26Zm5.037-8.605c.273 1.094.33 2.232.25 3.354.594.03.843-.548 1.097-.976.104-.46.169-.938.089-1.405-.136-.348-.327-.701-.635-.921-.265-.058-.538-.035-.801-.052ZM14.586 13.96c-.803.478-1.72.714-2.627.904-.484.1-.926.329-1.393.485.128.124.276.273.21.48-.029.23-.41.23-.411.464.177.219.39.435.673.516.355.087.67.308 1.044.328.435.036.859.16 1.245.365.596.298 1.262.584 1.624 1.178 1.04 1.908 1.674 4.002 2.255 6.088.06.416.223.805.357 1.206.17.72.478 1.399.712 2.099.38.828.564 1.74 1.043 2.521.221.35.4.755.739 1.015.966.87 2.212 1.308 3.336 1.93.329.231.744.131 1.1.251.165.3.293.619.416.942-.06.004-.178.017-.236.02.802.98.889 2.289 1.12 3.48.56 2.613.866 5.286.753 7.96.141-.6.277-1.206.388-1.812a6.82 6.82 0 0 1 .09-.731c.053-1.183.115-2.372-.04-3.55-.035-.625-.01-1.249-.091-1.869.006-1.002-.048-2.008.016-3.008.022-.336-.092-.661-.158-.985l.223.012c.04-.385-.015-.864.29-1.15.22-.223.52-.043.775-.022 1.274-.148 2.563-.004 3.838-.123.545-.121 1.113-.206 1.618-.462.622-.198 1.264-.375 1.822-.727.29-.196.614-.33.928-.483.098-.604.08-1.302.524-1.78.293-.182.294.254.29.439-.045.688-.108 1.38-.046 2.072.09.701.042 1.423.26 2.105.214 1.074.67 2.084.82 3.172.113.55.26 1.099.236 1.666-.024.904.066 1.817-.1 2.713-.03 1.112-.354 2.187-.48 3.285 0 .488-.07.974-.148 1.455.18-.01.362-.02.549-.025.037-.37.108-.73.195-1.084.008-.578.2-1.126.305-1.683.132-1.03.193-2.063.416-3.079.048-.608.241-1.197.288-1.805.072-.736.401-1.437.34-2.188-.056-.212-.101-.419-.19-.613-.415-1.02-.774-2.086-.79-3.194-.007-.577.237-1.104.357-1.658.12-.402.324-.771.452-1.171.26-.719.179-1.5.188-2.25-.08-.76-.03-1.555-.358-2.265-.372-.664-.855-1.285-1.491-1.714-.443-.27-.974-.308-1.458-.46-.686-.223-1.417-.187-2.126-.187-.744.004-1.441.279-2.124.539-.45.202-.943.262-1.396.452-.696.249-1.366.573-2.087.74a9.529 9.529 0 0 1-2.894.349c-.864-.028-1.784.11-2.566-.337-.442-.144-.524-.684-.933-.87-1.272-.744-1.984-2.085-2.716-3.306-.445-.991-1.024-1.992-1-3.114-.08-.538-.027-1.117-.308-1.604-.199-.43-.427-1.002-.992-.993-.192-.188-.12-.405-.013-.612-.196.128-.286.37-.487.495-.352-.172-.259-.56-.159-.854-.665-.038-1.398-.338-2.017.042Zm3.716-2.274c-.33.514-.488 1.108-.685 1.682.146.112.266.273.437.366.555-.573.948-1.454.636-2.241-.14.036-.314.048-.388.193Zm-3.179-.633c-.108.583.078 1.16.112 1.744.124.005.247.017.378.032-.071-.608-.044-1.297-.49-1.776Zm-.862-.71c.392-.28.913-.457 1.382-.258.606.27.955.955.96 1.597.007.466-.192.896-.44 1.279.224-.005.45.01.676.039.204-.604.38-1.228.7-1.78.36-.555 1.11-.56 1.698-.494.445.142.584.646.688 1.05.193.73-.118 1.462-.474 2.089-.174.299-.448.52-.67.779-.071.218.136.412.204.617.168.487.358.979.38 1.504.074.721.246 1.435.465 2.127.504.925 1.04 1.832 1.627 2.706.484.776 1.21 1.383 2.034 1.776.495.326 1.103.19 1.662.215 1.318.017 2.685.024 3.925-.49 1.124-.355 2.235-.742 3.347-1.129 1.344-.532 2.849-.47 4.238-.144.974.186 1.967.556 2.64 1.319.446.367.75.861 1.036 1.355.478-.598 1.544-.89 2.084-.218.882.863 1.082 2.23.702 3.374-.264.562-.544 1.226-1.172 1.458-.342.182-.736.094-1.1.04.218.258.065.574-.076.834-.25.434-.335.938-.603 1.365-.521.907-.419 2.02-.128 2.983.183.766.599 1.457.74 2.237.05.603-.17 1.179-.313 1.755-.09 1.092-.394 2.146-.515 3.234-.216 1.056-.399 2.12-.641 3.176-.071.604-.195 1.202-.303 1.8-.105.37-.375.783-.797.79-.406.012-.816-.02-1.203-.124-.376-.162-.657-.566-.59-.982.082-1.006.353-1.986.47-2.988.325-1.438.26-2.921.273-4.385.019-.888-.184-1.757-.382-2.615-.151-.35-.127-.744-.288-1.085.006.724.12 1.453.05 2.184.03.701.044 1.417-.104 2.112-.117.593-.112 1.205-.221 1.803-.148.794-.256 1.598-.483 2.377-.29.932-.42 1.935-.985 2.76-.307.401-.983.619-1.383.233-.436-.48-.282-1.177-.192-1.754.01-.624.16-1.232.135-1.855.037.225.03.463.09.695.084-.407-.067-.818.033-1.22.242-1.124.173-2.283.185-3.424a4.52 4.52 0 0 0-.154-1.263c-.206-.379-.255-.813-.35-1.225-.197-.763-.112-1.558-.057-2.327-.564-.013-1.12.113-1.683.088-.8-.033-1.595.127-2.39.064-.3-.028-.6-.01-.89.04-.164 1.503.045 3.015-.013 4.523-.068 1.176.08 2.35.012 3.53-.027 1.038-.142 2.079-.402 3.087-.13.495-.141 1.12-.598 1.448-.368.201-.783-.005-1.114-.185-.397-.651-.334-1.452-.33-2.182.046-1.12-.102-2.23-.176-3.341-.156-1.072-.344-2.141-.522-3.21a6.162 6.162 0 0 1-.2-1.146c-.21-.757-.37-1.577-.893-2.19-.439-.055-.87-.167-1.313-.193-.143.036-.096.223-.118.33-.077 1.9-.005 3.8-.136 5.698-.05.552.048 1.14-.194 1.663-.344.719-.167 1.54-.376 2.293-.104.406-.02.876-.31 1.216-.245.312-.196.778-.51 1.048-.309.318-.818.272-1.142.01a2.86 2.86 0 0 1-.208-.95 10.614 10.614 0 0 1 .05-2.354c-.004-1.114.08-2.236-.083-3.34-.037-.284-.05-.57-.067-.847-.082-.479-.076-.964-.102-1.447-.158-1.27-.291-2.55-.538-3.804-.05-1.065-.517-2.044-.954-2.994-.266-.884-.542-1.77-.904-2.62-.224-1.06-.712-2.04-.932-3.103-.1-.576-.352-1.112-.46-1.687-.222-1.001-.758-1.89-1.002-2.885-.09-.468-.4-.848-.586-1.277-.274-.574-.907-.79-1.43-1.06-.398-.224-.87-.16-1.3-.107-.248-.128-.43-.364-.685-.477-.179-.032-.352-.068-.525-.103-.652-.624-1.111-1.513-1.027-2.437.303-.338.661-.638 1.097-.784.576-.198 1.107-.514 1.706-.648a9.911 9.911 0 0 0 2.58-.987c-.075-.859-.274-1.72-.132-2.581" fill="#0A0A0B"/><path d="M14.697 14.734c.358-.161.749-.012 1.118.028.404.016.682.523.452.87-.293.349-.87.453-1.245.181-.207-.044-.425-.085-.552-.265-.279-.246-.108-.724.227-.814ZM17.946 22.412c.406-.098.482.697.06.673-.401.039-.415-.599-.06-.673ZM18.531 23.95c.382-.21.467.516.09.516-.262-.03-.32-.414-.09-.516ZM19.157 25.293a.424.424 0 0 1 .392-.01c.303.367.065 1.157-.503.993-.452-.18-.277-.831.11-.983M20.015 27.942c-.281-.546.05-1.208.575-1.454.245-.046.528.189.41.452-.173.436-.45.973-.985 1.002ZM20.998 29.42c-.34-.5-.052-1.41.616-1.396.39.008.453.473.337.765-.17.363-.516.725-.953.63ZM34.471 29.216c-.426.012-.674-.651-.196-.778.458-.014.352.51.196.778ZM30.663 28.824c.18-.083.343.105.463.222.252.308.345.71.434 1.095.067.27.002.588-.211.781-.14.126-.357.047-.467-.074-.227-.371-.124-.835-.318-1.218-.117-.266-.257-.666.1-.806ZM32.455 28.83c.179-.168.508-.085.616.13.194.316.444.692.28 1.07-.262.302-.662-.03-.772-.308-.106-.27-.357-.625-.124-.892ZM28.682 29.516c.165-.095.43-.067.513.129.218.443.387.943.308 1.445-.044.232-.245.39-.42.532-.35-.2-.349-.688-.38-1.052-.029-.346-.316-.762-.021-1.054M21.963 30.066c.312.014.478.414.375.684-.357.071-.655-.449-.375-.684Z" fill="#0A0A0B"/></g><defs><clipPath id="a"><path fill="#fff" d="M0 0h53v47H0z"/></clipPath></defs></svg>
